TileServer und Tiles/svg/9/96_33.svg

<?xml version='1.0' encoding='UTF-8' standalone='no'?>
<svg xmlns="http://www.w3.org/2000/svg" width="497pt" viewBox="0 0 497 279" xmlns:xlink="http://www.w3.org/1999/xlink" height="279pt">
 <defs style="stroke:none;" overflow="visible">
  <path id="glyph0-7" d="M 2.421875 0.09375 C 1.796875 0.09375 1.316406 -0.0820312 0.984375 -0.4375 C 0.648438 -0.800781 0.484375 -1.296875 0.484375 -1.921875 C 0.484375 -2.347656 0.539062 -2.769531 0.65625 -3.1875 C 0.78125 -3.601562 0.957031 -3.984375 1.1875 -4.328125 C 1.425781 -4.671875 1.710938 -4.941406 2.046875 -5.140625 C 2.378906 -5.347656 2.75 -5.453125 3.15625 -5.453125 C 3.664062 -5.453125 4.046875 -5.34375 4.296875 -5.125 C 4.554688 -4.90625 4.6875 -4.597656 4.6875 -4.203125 C 4.6875 -3.859375 4.578125 -3.539062 4.359375 -3.25 C 4.148438 -2.96875 3.8125 -2.738281 3.34375 -2.5625 C 2.882812 -2.394531 2.289062 -2.3125 1.5625 -2.3125 L 1.390625 -2.3125 C 1.378906 -2.257812 1.375 -2.195312 1.375 -2.125 C 1.375 -2.0625 1.375 -2.003906 1.375 -1.953125 C 1.375 -1.546875 1.472656 -1.222656 1.671875 -0.984375 C 1.867188 -0.742188 2.171875 -0.625 2.578125 -0.625 C 2.828125 -0.625 3.066406 -0.660156 3.296875 -0.734375 C 3.523438 -0.804688 3.773438 -0.910156 4.046875 -1.046875 L 4.046875 -0.296875 C 3.785156 -0.179688 3.535156 -0.0859375 3.296875 -0.015625 C 3.054688 0.0546875 2.765625 0.09375 2.421875 0.09375 Z M 1.515625 -3.03125 L 1.59375 -3.03125 C 1.988281 -3.03125 2.351562 -3.0625 2.6875 -3.125 C 3.03125 -3.195312 3.304688 -3.316406 3.515625 -3.484375 C 3.722656 -3.648438 3.828125 -3.867188 3.828125 -4.140625 C 3.828125 -4.316406 3.769531 -4.457031 3.65625 -4.5625 C 3.539062 -4.675781 3.359375 -4.734375 3.109375 -4.734375 C 2.785156 -4.734375 2.472656 -4.582031 2.171875 -4.28125 C 1.878906 -3.988281 1.660156 -3.570312 1.515625 -3.03125 Z M 1.515625 -3.03125 "/>
  <path id="glyph0-6" d="M 0.265625 0 L 1.875 -7.59375 L 2.765625 -7.59375 L 2.125 -4.578125 C 2.007812 -4.046875 1.910156 -3.632812 1.828125 -3.34375 C 1.742188 -3.050781 1.6875 -2.859375 1.65625 -2.765625 L 1.671875 -2.765625 L 4.203125 -5.359375 L 5.25 -5.359375 L 2.953125 -3.0625 L 4.375 0 L 3.40625 0 L 2.28125 -2.515625 L 1.5625 -1.9375 L 1.15625 0 Z M 0.265625 0 "/>
  <path id="glyph0-5" d="M 0.40625 0 L 1.921875 -7.140625 L 2.8125 -7.140625 L 1.453125 -0.796875 L 4.203125 -0.796875 L 4.03125 0 Z M 0.40625 0 "/>
  <path id="glyph0-4" d="M -0.25 2.40625 C -0.40625 2.40625 -0.535156 2.394531 -0.640625 2.375 C -0.742188 2.351562 -0.84375 2.328125 -0.9375 2.296875 L -0.9375 1.59375 C -0.84375 1.613281 -0.742188 1.632812 -0.640625 1.65625 C -0.535156 1.675781 -0.421875 1.6875 -0.296875 1.6875 C -0.0234375 1.6875 0.203125 1.601562 0.390625 1.4375 C 0.585938 1.269531 0.769531 1.023438 0.9375 0.703125 L 1.296875 0.078125 L 0.484375 -5.359375 L 1.359375 -5.359375 L 1.703125 -2.703125 C 1.742188 -2.492188 1.769531 -2.257812 1.78125 -2 C 1.800781 -1.75 1.816406 -1.507812 1.828125 -1.28125 C 1.835938 -1.050781 1.84375 -0.863281 1.84375 -0.71875 L 1.875 -0.71875 C 1.914062 -0.820312 1.976562 -0.976562 2.0625 -1.1875 C 2.15625 -1.40625 2.253906 -1.628906 2.359375 -1.859375 C 2.472656 -2.085938 2.570312 -2.273438 2.65625 -2.421875 L 4.203125 -5.359375 L 5.15625 -5.359375 L 1.75 0.90625 C 1.476562 1.40625 1.191406 1.78125 0.890625 2.03125 C 0.597656 2.28125 0.21875 2.40625 -0.25 2.40625 Z M -0.25 2.40625 "/>
  <path id="glyph0-3" d="M 0.28125 0 L 1.421875 -5.359375 L 2.140625 -5.359375 L 2.03125 -4.375 L 2.078125 -4.375 C 2.222656 -4.5625 2.367188 -4.734375 2.515625 -4.890625 C 2.671875 -5.054688 2.84375 -5.191406 3.03125 -5.296875 C 3.226562 -5.398438 3.453125 -5.453125 3.703125 -5.453125 C 3.796875 -5.453125 3.894531 -5.445312 4 -5.4375 C 4.101562 -5.4375 4.203125 -5.421875 4.296875 -5.390625 L 4.09375 -4.59375 C 3.914062 -4.632812 3.75 -4.65625 3.59375 -4.65625 C 3.257812 -4.65625 2.960938 -4.546875 2.703125 -4.328125 C 2.441406 -4.109375 2.222656 -3.828125 2.046875 -3.484375 C 1.878906 -3.148438 1.757812 -2.804688 1.6875 -2.453125 L 1.15625 0 Z M 0.28125 0 "/>
  <path id="glyph0-2" d="M 1.9375 0.09375 C 1.507812 0.09375 1.160156 -0.0546875 0.890625 -0.359375 C 0.617188 -0.671875 0.484375 -1.128906 0.484375 -1.734375 C 0.484375 -2.234375 0.546875 -2.707031 0.671875 -3.15625 C 0.804688 -3.601562 0.988281 -4 1.21875 -4.34375 C 1.445312 -4.6875 1.722656 -4.957031 2.046875 -5.15625 C 2.367188 -5.351562 2.722656 -5.453125 3.109375 -5.453125 C 3.460938 -5.453125 3.75 -5.359375 3.96875 -5.171875 C 4.1875 -4.992188 4.347656 -4.78125 4.453125 -4.53125 L 4.515625 -4.53125 L 4.828125 -5.359375 L 5.5 -5.359375 L 4.359375 0 L 3.65625 0 L 3.796875 -0.984375 L 3.75 -0.984375 C 3.519531 -0.691406 3.25 -0.4375 2.9375 -0.21875 C 2.632812 -0.0078125 2.300781 0.09375 1.9375 0.09375 Z M 2.21875 -0.625 C 2.46875 -0.625 2.707031 -0.710938 2.9375 -0.890625 C 3.175781 -1.078125 3.390625 -1.320312 3.578125 -1.625 C 3.773438 -1.9375 3.925781 -2.28125 4.03125 -2.65625 C 4.082031 -2.851562 4.113281 -3.03125 4.125 -3.1875 C 4.144531 -3.351562 4.15625 -3.507812 4.15625 -3.65625 C 4.15625 -3.96875 4.066406 -4.222656 3.890625 -4.421875 C 3.722656 -4.617188 3.492188 -4.71875 3.203125 -4.71875 C 2.941406 -4.71875 2.703125 -4.632812 2.484375 -4.46875 C 2.265625 -4.3125 2.070312 -4.085938 1.90625 -3.796875 C 1.738281 -3.515625 1.609375 -3.191406 1.515625 -2.828125 C 1.421875 -2.472656 1.375 -2.097656 1.375 -1.703125 C 1.375 -1.347656 1.445312 -1.078125 1.59375 -0.890625 C 1.738281 -0.710938 1.945312 -0.625 2.21875 -0.625 Z M 2.21875 -0.625 "/>
  <path id="glyph0-1" d="M 3.4375 0.09375 C 2.582031 0.09375 1.914062 -0.140625 1.4375 -0.609375 C 0.957031 -1.078125 0.71875 -1.738281 0.71875 -2.59375 C 0.71875 -3.238281 0.804688 -3.84375 0.984375 -4.40625 C 1.171875 -4.976562 1.4375 -5.472656 1.78125 -5.890625 C 2.125 -6.316406 2.53125 -6.644531 3 -6.875 C 3.46875 -7.113281 3.988281 -7.234375 4.5625 -7.234375 C 5 -7.234375 5.378906 -7.195312 5.703125 -7.125 C 6.035156 -7.050781 6.347656 -6.945312 6.640625 -6.8125 L 6.296875 -6.046875 C 6.054688 -6.148438 5.789062 -6.242188 5.5 -6.328125 C 5.207031 -6.410156 4.894531 -6.453125 4.5625 -6.453125 C 4.007812 -6.453125 3.515625 -6.285156 3.078125 -5.953125 C 2.648438 -5.628906 2.304688 -5.179688 2.046875 -4.609375 C 1.796875 -4.046875 1.671875 -3.394531 1.671875 -2.65625 C 1.671875 -2.28125 1.734375 -1.941406 1.859375 -1.640625 C 1.992188 -1.347656 2.195312 -1.113281 2.46875 -0.9375 C 2.738281 -0.769531 3.085938 -0.6875 3.515625 -0.6875 C 3.773438 -0.6875 4.007812 -0.703125 4.21875 -0.734375 C 4.425781 -0.773438 4.601562 -0.820312 4.75 -0.875 L 5.203125 -2.984375 L 3.8125 -2.984375 L 3.984375 -3.765625 L 6.265625 -3.765625 L 5.515625 -0.265625 C 5.210938 -0.160156 4.894531 -0.0703125 4.5625 0 C 4.226562 0.0625 3.851562 0.09375 3.4375 0.09375 Z M 3.4375 0.09375 "/>
  <path id="glyph0-0" d="M 0.9375 0 L 0.9375 -7.140625 L 5.046875 -7.140625 L 5.046875 0 Z M 1.453125 -0.515625 L 4.546875 -0.515625 L 4.546875 -6.625 L 1.453125 -6.625 Z M 1.453125 -0.515625 "/>
 </defs>
 <image width="497" xlink:href="svg/9/96_33.jpg" height="279"/>
 <g>
  <path d="M 77.351562 270.78125 C 76.496094 270.78125 75.828125 270.546875 75.351562 270.078125 C 74.871094 269.609375 74.632812 268.949219 74.632812 268.09375 C 74.632812 267.449219 74.71875 266.84375 74.898438 266.28125 C 75.085938 265.710938 75.351562 265.214844 75.695312 264.796875 C 76.039062 264.371094 76.445312 264.042969 76.914062 263.8125 C 77.382812 263.574219 77.902344 263.453125 78.476562 263.453125 C 78.914062 263.453125 79.292969 263.492188 79.617188 263.5625 C 79.949219 263.636719 80.261719 263.742188 80.554688 263.875 L 80.210938 264.640625 C 79.96875 264.539062 79.703125 264.445312 79.414062 264.359375 C 79.121094 264.277344 78.808594 264.234375 78.476562 264.234375 C 77.921875 264.234375 77.429688 264.402344 76.992188 264.734375 C 76.5625 265.058594 76.21875 265.507812 75.960938 266.078125 C 75.710938 266.640625 75.585938 267.292969 75.585938 268.03125 C 75.585938 268.40625 75.648438 268.746094 75.773438 269.046875 C 75.90625 269.339844 76.109375 269.574219 76.382812 269.75 C 76.652344 269.917969 77 270 77.429688 270 C 77.6875 270 77.921875 269.984375 78.132812 269.953125 C 78.339844 269.914062 78.515625 269.867188 78.664062 269.8125 L 79.117188 267.703125 L 77.726562 267.703125 L 77.898438 266.921875 L 80.179688 266.921875 L 79.429688 270.421875 C 79.125 270.527344 78.808594 270.617188 78.476562 270.6875 C 78.140625 270.75 77.765625 270.78125 77.351562 270.78125 Z M 77.351562 270.78125 " transform=" rotate(  340 86.9333 273.656) " style="fill:none;stroke-width:2;stroke-linecap:butt;stroke-linejoin:round;stroke:rgb(100%,100%,100%);stroke-opacity:0.6;stroke-miterlimit:10;"/>
  <path d="M 82.628906 270.78125 C 82.199219 270.78125 81.851562 270.632812 81.582031 270.328125 C 81.308594 270.015625 81.175781 269.558594 81.175781 268.953125 C 81.175781 268.453125 81.238281 267.980469 81.363281 267.53125 C 81.496094 267.085938 81.679688 266.6875 81.910156 266.34375 C 82.136719 266 82.414062 265.730469 82.738281 265.53125 C 83.058594 265.335938 83.414062 265.234375 83.800781 265.234375 C 84.152344 265.234375 84.441406 265.328125 84.660156 265.515625 C 84.878906 265.695312 85.039062 265.90625 85.144531 266.15625 L 85.207031 266.15625 L 85.519531 265.328125 L 86.191406 265.328125 L 85.050781 270.6875 L 84.347656 270.6875 L 84.488281 269.703125 L 84.441406 269.703125 C 84.210938 269.996094 83.941406 270.25 83.628906 270.46875 C 83.324219 270.679688 82.992188 270.78125 82.628906 270.78125 Z M 82.910156 270.0625 C 83.160156 270.0625 83.398438 269.976562 83.628906 269.796875 C 83.867188 269.609375 84.082031 269.367188 84.269531 269.0625 C 84.464844 268.75 84.617188 268.40625 84.722656 268.03125 C 84.773438 267.835938 84.804688 267.65625 84.816406 267.5 C 84.835938 267.335938 84.847656 267.179688 84.847656 267.03125 C 84.847656 266.71875 84.757812 266.464844 84.582031 266.265625 C 84.414062 266.070312 84.183594 265.96875 83.894531 265.96875 C 83.632812 265.96875 83.394531 266.054688 83.175781 266.21875 C 82.957031 266.375 82.761719 266.601562 82.597656 266.890625 C 82.429688 267.171875 82.300781 267.496094 82.207031 267.859375 C 82.113281 268.214844 82.066406 268.589844 82.066406 268.984375 C 82.066406 269.339844 82.136719 269.609375 82.285156 269.796875 C 82.429688 269.976562 82.636719 270.0625 82.910156 270.0625 Z M 82.910156 270.0625 " transform=" rotate(  340 86.9333 273.656) " style="fill:none;stroke-width:2;stroke-linecap:butt;stroke-linejoin:round;stroke:rgb(100%,100%,100%);stroke-opacity:0.6;stroke-miterlimit:10;"/>
  <path d="M 86.65625 270.6875 L 87.796875 265.328125 L 88.515625 265.328125 L 88.40625 266.3125 L 88.453125 266.3125 C 88.597656 266.125 88.742188 265.953125 88.890625 265.796875 C 89.046875 265.632812 89.21875 265.496094 89.40625 265.390625 C 89.601562 265.289062 89.828125 265.234375 90.078125 265.234375 C 90.171875 265.234375 90.269531 265.242188 90.375 265.25 C 90.476562 265.25 90.578125 265.265625 90.671875 265.296875 L 90.46875 266.09375 C 90.289062 266.054688 90.125 266.03125 89.96875 266.03125 C 89.632812 266.03125 89.335938 266.140625 89.078125 266.359375 C 88.816406 266.578125 88.597656 266.859375 88.421875 267.203125 C 88.253906 267.539062 88.132812 267.882812 88.0625 268.234375 L 87.53125 270.6875 Z M 86.65625 270.6875 " transform=" rotate(  340 86.9333 273.656) " style="fill:none;stroke-width:2;stroke-linecap:butt;stroke-linejoin:round;stroke:rgb(100%,100%,100%);stroke-opacity:0.6;stroke-miterlimit:10;"/>
  <path d="M 90.632812 270.6875 L 91.773438 265.328125 L 92.492188 265.328125 L 92.382812 266.3125 L 92.429688 266.3125 C 92.574219 266.125 92.71875 265.953125 92.867188 265.796875 C 93.023438 265.632812 93.195312 265.496094 93.382812 265.390625 C 93.578125 265.289062 93.804688 265.234375 94.054688 265.234375 C 94.148438 265.234375 94.246094 265.242188 94.351562 265.25 C 94.453125 265.25 94.554688 265.265625 94.648438 265.296875 L 94.445312 266.09375 C 94.265625 266.054688 94.101562 266.03125 93.945312 266.03125 C 93.609375 266.03125 93.3125 266.140625 93.054688 266.359375 C 92.792969 266.578125 92.574219 266.859375 92.398438 267.203125 C 92.230469 267.539062 92.109375 267.882812 92.039062 268.234375 L 91.507812 270.6875 Z M 90.632812 270.6875 " transform=" rotate(  340 86.9333 273.656) " style="fill:none;stroke-width:2;stroke-linecap:butt;stroke-linejoin:round;stroke:rgb(100%,100%,100%);stroke-opacity:0.6;stroke-miterlimit:10;"/>
  <path d="M 94.082031 273.09375 C 93.925781 273.09375 93.796875 273.082031 93.691406 273.0625 C 93.589844 273.039062 93.488281 273.015625 93.394531 272.984375 L 93.394531 272.28125 C 93.488281 272.300781 93.589844 272.320312 93.691406 272.34375 C 93.796875 272.363281 93.910156 272.375 94.035156 272.375 C 94.308594 272.375 94.535156 272.289062 94.722656 272.125 C 94.917969 271.957031 95.101562 271.710938 95.269531 271.390625 L 95.628906 270.765625 L 94.816406 265.328125 L 95.691406 265.328125 L 96.035156 267.984375 C 96.074219 268.195312 96.101562 268.429688 96.113281 268.6875 C 96.132812 268.9375 96.148438 269.179688 96.160156 269.40625 C 96.167969 269.636719 96.175781 269.824219 96.175781 269.96875 L 96.207031 269.96875 C 96.246094 269.867188 96.308594 269.710938 96.394531 269.5 C 96.488281 269.28125 96.585938 269.058594 96.691406 268.828125 C 96.804688 268.601562 96.902344 268.414062 96.988281 268.265625 L 98.535156 265.328125 L 99.488281 265.328125 L 96.082031 271.59375 C 95.808594 272.09375 95.523438 272.46875 95.222656 272.71875 C 94.929688 272.96875 94.550781 273.09375 94.082031 273.09375 Z M 94.082031 273.09375 " transform=" rotate(  340 86.9333 273.656) " style="fill:none;stroke-width:2;stroke-linecap:butt;stroke-linejoin:round;stroke:rgb(100%,100%,100%);stroke-opacity:0.6;stroke-miterlimit:10;"/>
  <path d="M 76.765625 282.625 L 78.28125 275.484375 L 79.171875 275.484375 L 77.8125 281.828125 L 80.5625 281.828125 L 80.390625 282.625 Z M 76.765625 282.625 " transform=" rotate(  340 86.9333 273.656) " style="fill:none;stroke-width:2;stroke-linecap:butt;stroke-linejoin:round;stroke:rgb(100%,100%,100%);stroke-opacity:0.6;stroke-miterlimit:10;"/>
  <path d="M 83.074219 282.71875 C 82.644531 282.71875 82.296875 282.570312 82.027344 282.265625 C 81.753906 281.953125 81.621094 281.496094 81.621094 280.890625 C 81.621094 280.390625 81.683594 279.917969 81.808594 279.46875 C 81.941406 279.023438 82.125 278.625 82.355469 278.28125 C 82.582031 277.9375 82.859375 277.667969 83.183594 277.46875 C 83.503906 277.273438 83.859375 277.171875 84.246094 277.171875 C 84.597656 277.171875 84.886719 277.265625 85.105469 277.453125 C 85.324219 277.632812 85.484375 277.84375 85.589844 278.09375 L 85.652344 278.09375 L 85.964844 277.265625 L 86.636719 277.265625 L 85.496094 282.625 L 84.792969 282.625 L 84.933594 281.640625 L 84.886719 281.640625 C 84.65625 281.933594 84.386719 282.1875 84.074219 282.40625 C 83.769531 282.617188 83.4375 282.71875 83.074219 282.71875 Z M 83.355469 282 C 83.605469 282 83.84375 281.914062 84.074219 281.734375 C 84.3125 281.546875 84.527344 281.304688 84.714844 281 C 84.910156 280.6875 85.0625 280.34375 85.167969 279.96875 C 85.21875 279.773438 85.25 279.59375 85.261719 279.4375 C 85.28125 279.273438 85.292969 279.117188 85.292969 278.96875 C 85.292969 278.65625 85.203125 278.402344 85.027344 278.203125 C 84.859375 278.007812 84.628906 277.90625 84.339844 277.90625 C 84.078125 277.90625 83.839844 277.992188 83.621094 278.15625 C 83.402344 278.3125 83.207031 278.539062 83.042969 278.828125 C 82.875 279.109375 82.746094 279.433594 82.652344 279.796875 C 82.558594 280.152344 82.511719 280.527344 82.511719 280.921875 C 82.511719 281.277344 82.582031 281.546875 82.730469 281.734375 C 82.875 281.914062 83.082031 282 83.355469 282 Z M 83.355469 282 " transform=" rotate(  340 86.9333 273.656) " style="fill:none;stroke-width:2;stroke-linecap:butt;stroke-linejoin:round;stroke:rgb(100%,100%,100%);stroke-opacity:0.6;stroke-miterlimit:10;"/>
  <path d="M 87.082031 282.625 L 88.691406 275.03125 L 89.582031 275.03125 L 88.941406 278.046875 C 88.824219 278.578125 88.726562 278.992188 88.644531 279.28125 C 88.558594 279.574219 88.503906 279.765625 88.472656 279.859375 L 88.488281 279.859375 L 91.019531 277.265625 L 92.066406 277.265625 L 89.769531 279.5625 L 91.191406 282.625 L 90.222656 282.625 L 89.097656 280.109375 L 88.378906 280.6875 L 87.972656 282.625 Z M 87.082031 282.625 " transform=" rotate(  340 86.9333 273.656) " style="fill:none;stroke-width:2;stroke-linecap:butt;stroke-linejoin:round;stroke:rgb(100%,100%,100%);stroke-opacity:0.6;stroke-miterlimit:10;"/>
  <path d="M 93.988281 282.71875 C 93.363281 282.71875 92.882812 282.542969 92.550781 282.1875 C 92.214844 281.824219 92.050781 281.328125 92.050781 280.703125 C 92.050781 280.277344 92.105469 279.855469 92.222656 279.4375 C 92.347656 279.023438 92.523438 278.640625 92.753906 278.296875 C 92.992188 277.953125 93.277344 277.683594 93.613281 277.484375 C 93.945312 277.277344 94.316406 277.171875 94.722656 277.171875 C 95.230469 277.171875 95.613281 277.28125 95.863281 277.5 C 96.121094 277.71875 96.253906 278.027344 96.253906 278.421875 C 96.253906 278.765625 96.144531 279.085938 95.925781 279.375 C 95.714844 279.65625 95.378906 279.886719 94.910156 280.0625 C 94.449219 280.230469 93.855469 280.3125 93.128906 280.3125 L 92.957031 280.3125 C 92.945312 280.367188 92.941406 280.429688 92.941406 280.5 C 92.941406 280.5625 92.941406 280.621094 92.941406 280.671875 C 92.941406 281.078125 93.039062 281.402344 93.238281 281.640625 C 93.433594 281.882812 93.738281 282 94.144531 282 C 94.394531 282 94.632812 281.964844 94.863281 281.890625 C 95.089844 281.820312 95.339844 281.714844 95.613281 281.578125 L 95.613281 282.328125 C 95.351562 282.445312 95.101562 282.539062 94.863281 282.609375 C 94.621094 282.679688 94.332031 282.71875 93.988281 282.71875 Z M 93.082031 279.59375 L 93.160156 279.59375 C 93.554688 279.59375 93.917969 279.5625 94.253906 279.5 C 94.597656 279.429688 94.871094 279.308594 95.082031 279.140625 C 95.289062 278.976562 95.394531 278.757812 95.394531 278.484375 C 95.394531 278.308594 95.335938 278.167969 95.222656 278.0625 C 95.105469 277.949219 94.925781 277.890625 94.675781 277.890625 C 94.351562 277.890625 94.039062 278.042969 93.738281 278.34375 C 93.445312 278.636719 93.226562 279.054688 93.082031 279.59375 Z M 93.082031 279.59375 " transform=" rotate(  340 86.9333 273.656) " style="fill:none;stroke-width:2;stroke-linecap:butt;stroke-linejoin:round;stroke:rgb(100%,100%,100%);stroke-opacity:0.6;stroke-miterlimit:10;"/>
  <g transform=" rotate(  340 86.9333 273.656) " style="fill:rgb(30.196078%,50.196078%,70.196078%);fill-opacity:1;">
   <use xlink:href="#glyph0-1" y="270.685598" x="73.913319"/>
   <use xlink:href="#glyph0-2" y="270.685598" x="80.693319"/>
   <use xlink:href="#glyph0-3" y="270.685598" x="86.373319"/>
   <use xlink:href="#glyph0-3" y="270.685598" x="90.353319"/>
   <use xlink:href="#glyph0-4" y="270.685598" x="94.333319"/>
   <use xlink:href="#glyph0-5" y="282.625598" x="76.358319"/>
   <use xlink:href="#glyph0-2" y="282.625598" x="81.138319"/>
   <use xlink:href="#glyph0-6" y="282.625598" x="86.818319"/>
   <use xlink:href="#glyph0-7" y="282.625598" x="91.568319"/>
  </g>
 </g>
</svg>

<svg xmlns="http://www.w3.org/2000/svg" xmlns:xlink="http://www.w3.org/1999/xlink" viewBox="0 0 497 279"> <defs overflow="visible" style="stroke:none">  <path id="g" d="M2.4 0c-.6 0-1 0-1.4-.3C.6-.8.5-1.3.5-2c0-.3 0-.8.2-1.2 0-.4.3-.8.5-1.1.2-.4.5-.7.8-.8a2 2 0 0 1 1.2-.4c.5 0 .8.2 1.1.5.3 0 .4.4.4.8 0 .3-.1.7-.3 1-.4.2-.6.4-1 .6-.6.2-1.2.3-1.9.3h-.1v.3c0 .5 0 .8.3 1 .2.3.5.4.9.4l.7-.1A5 5 0 0 0 4-1v.7a6 6 0 0 1-.7.3h-.9Zm-.9-3 1.3-.1.7-.4c.2-.1.3-.4.3-.5l-.1-.6-.7-.1c-.2 0-.5.1-.9.4L1.6-3Zm0 0"/>  <path id="f" d="m.3 0 1.6-7.6h.9l-.8 3c.1.6 0 1-.2 1.3l-.1.5 2.5-2.6h1L3-3l1.4 3h-1L2.3-2.5l-.7.5-.4 2Zm0 0"/>  <path id="e" d="M.4 0 2-7.1h1L1.4-.8h2.8L4 0Zm0 0"/>  <path id="d" d="M-.3 2.4h-.3l-.4-.1v-.7h.7c.3.1.5.1.7-.1.2-.2.4-.5.5-.8l.4-.6-.8-5.5h.9l.3 2.7v.7l.2.7v.6A28.4 28.4 0 0 1 2.5-2c-.1 0 .1-.3.2-.4l1.5-3h1L1.7 1c-.1.4-.4.8-.7 1-.4.3-.8.4-1.2.4Zm0 0"/>  <path id="c" d="m.3 0 1.1-5.4h.7v1l.4-.5.5-.4.7-.2H4l.3.2-.2.7h-.5c-.3-.1-.6-.1-.9.2l-.7.9-.3 1L1.2 0Zm0 0"/>  <path id="b" d="M2 0c-.6 0-.9 0-1.2-.3C.6-.7.5-1 .5-1.7c0-.5 0-1 .2-1.5l.5-1.1c.2-.4.5-.7.8-.9a2 2 0 0 1 1.1-.3c.4 0 .6.1.9.3l.5.7.3-.9h.7L4.4 0h-.7l.1-1c-.3.3-.5.6-.9.8-.3.2-.6.2-.9.2Zm.1-.5c.4-.1.6-.2.9-.5l.6-.6a4 4 0 0 0 .4-1 3 3 0 0 0 .1-.7 4 4 0 0 0 0-.4c.1-.3.1-.5-.1-.7-.3-.2-.5-.3-.8-.3-.3 0-.5 0-.7.2a2 2 0 0 0-.6.7l-.4 1-.1 1.1c0 .4 0 .6.2.8.1.2.3.3.6.3Zm.1-.1"/>  <path id="a" d="M3.4 0c-.8 0-1.4 0-2-.5C1-1.1.7-1.7.7-2.6A6 6 0 0 1 1-4.4c.2-.6.4-1 .8-1.6.2-.3.7-.6 1.2-.9.5-.1 1-.3 1.6-.3h1.1l1 .5-.5.7a7.8 7.8 0 0 0-.7-.3l-1-.2c-.5 0-.9.2-1.3.5-.6.4-.9.8-1.2 1.4a4.8 4.8 0 0 0-.4 2c.1.2.1.6.3.9 0 .4.3.6.6.7l1 .3h.7l.5-.3.6-1.9H3.8l.2-1h2.3L5.5-.3a8 8 0 0 1-1 .3h-.9Zm0 0"/>  <path d="M1 0v-7.1h4V0Zm.4-.5h3.1v-6.1h-3Zm.1 0"/> </defs> <image xlink:href="svg/9/96_33.jpg" width="497" height="279"/> <path d="M77.4 270.8c-.9 0-1.6-.3-2-.8-.5-.4-.8-1.1-.8-2a6 6 0 0 1 .4-1.7c.1-.6.4-1 .7-1.5.3-.4.7-.8 1.2-1 .5-.2 1.1-.3 1.6-.3h1.1l1 .5-.4.6a7.8 7.8 0 0 0-.8-.2l-1-.2c-.4 0-.9.2-1.4.5-.4.4-.8.8-1 1.4a4.8 4.8 0 0 0-.4 1.9c0 .3 0 .6.2 1 .1.2.2.5.6.6.3.4.6.4 1 .4h.7l.6-.2.3-2.1h-1.3l.3-.8h2.2l-.8 3.5a8 8 0 0 1-1 .3h-.9Zm5.2 0c-.4 0-.6-.2-1-.5-.3-.3-.4-.7-.4-1.3 0-.5 0-1 .2-1.5l.5-1.2.8-.8a2 2 0 0 1 1.1-.3c.4 0 .6.1.9.3l.3.7h.2l.3-.9h.7l-1.2 5.4h-.7l.2-1-1 .8c-.2.2-.5.3-.9.3Zm.4-.8c.2 0 .4 0 .6-.2l.7-.7a4 4 0 0 0 .4-1.1 3 3 0 0 0 .1-.6 4 4 0 0 0 0-.4c0-.3 0-.5-.2-.7-.2-.3-.4-.3-.7-.3-.3 0-.5 0-.7.2a2 2 0 0 0-.6.8l-.4.9-.1 1c-.1.5-.1.8.2 1 .1.1.3.2.6.2Zm3.7.7 1.1-5.4h.7v1l.4-.5.5-.4.7-.2h.3l.3.2-.2.7H90c-.4-.1-.7-.1-1 .2l-.5.9-.4 1-.6 2.5Zm3.9 0 1.2-5.4h.7l-.1 1 .6-.5.4-.4.6-.2h.4l.2.2-.2.7H94c-.4-.1-.7-.1-.9.2l-.7.9-.4 1-.5 2.5ZM94 273h-.5v-.7h.5c.3.1.5.1.7-.1l.6-.8.3-.6-.8-5.5h.9l.3 2.7.1.7v1.3h.2a28.4 28.4 0 0 1 .4-1.2l.3-.5 1.5-3h1l-3.5 6.3c-.2.4-.5.9-.8 1.1-.2.3-.6.4-1.1.4Zm-17.2 9.6 1.5-7.1h.9l-1.4 6.3h2.8l-.2.8Zm6.2.1c-.3 0-.6-.1-1-.4-.2-.3-.4-.8-.4-1.4 0-.5 0-1 .2-1.4.2-.5.3-.9.6-1.2.2-.4.5-.6.8-.8a2 2 0 0 1 1-.3c.4 0 .8 0 1 .3l.3.5.5-.7h.6l-1.1 5.3h-.7l.1-1-.9.8c-.2.2-.6.3-1 .3Zm.5-.7c.1 0 .3 0 .5-.3l.7-.7a4 4 0 0 0 .5-1 3 3 0 0 0 0-.6 4 4 0 0 0 .1-.4c0-.3 0-.6-.3-.8 0-.2-.4-.3-.7-.3-.2.1-.5.1-.7.3a2 2 0 0 0-.6.6c0 .3-.3.6-.3 1l-.2 1.1c0 .4 0 .6.2.8.3.3.4.3.7.3Zm3.5.6 1.8-7.6h.8l-.7 3c.1.6-.2 1-.3 1.3l-.1.6 2.5-2.6h1l-2.1 2.3 1.3 3h-1l-1.1-2.5-.7.6-.4 2Zm7 .1c-.6 0-1.1-.2-1.4-.5-.4-.4-.6-.9-.6-1.5l.2-1.3c.1-.4.3-.8.6-1.1l.8-.8a2 2 0 0 1 1.1-.3c.5 0 1 0 1.3.3 0 .2.3.5.3 1 0 .2-.3.5-.4.8-.2.4-.5.6-.9.7l-1.9.3H93v.4c0 .3 0 .7.1 1 .3.1.6.3 1.1.3l.6-.1a5 5 0 0 0 .8-.3v.7a6 6 0 0 1-.6.3l-1.1.1Zm-1-3.1h.3l.9-.1c.5 0 .8-.2 1-.4.1-.1.2-.3.2-.6 0-.2 0-.3-.2-.5 0-.1-.2-.1-.5-.1s-.7.1-1 .4c-.3.3-.5.8-.6 1.3Zm0 0" style="fill:none;stroke-width:2;stroke-linecap:butt;stroke-linejoin:round;stroke:#fff;stroke-opacity:.6;stroke-miterlimit:10" transform=" rotate(  340 86.9333 273.656) "/> <g style="fill:#4d80b3;fill-opacity:1" transform=" rotate(  340 86.9333 273.656) ">  <use xlink:href="#a" x="73.9" y="270.7"/>  <use xlink:href="#b" x="80.7" y="270.7"/>  <use xlink:href="#c" x="86.4" y="270.7"/>  <use xlink:href="#c" x="90.4" y="270.7"/>  <use xlink:href="#d" x="94.3" y="270.7"/>  <use xlink:href="#e" x="76.4" y="282.6"/>  <use xlink:href="#b" x="81.1" y="282.6"/>  <use xlink:href="#f" x="86.8" y="282.6"/>  <use xlink:href="#g" x="91.6" y="282.6"/> </g></svg>
